X: 38379
T: Star Above The Garter, The
R: slide
M: 12/8
K: Gmajor
Bc|:"G"d2B BAG "D"~A3 ABA|"C"G2E c2B "G"BAG "D"ABc|
"G"d2B BAG "D"~A3 ABA|1 "C"G2E c2E "D"E2D DBc:|2 "C"G2E c2E "D"E2D D2c||
|:"D"d2e f2a "C"g2e "G"d2B|G2B "C"c2B "D"BAG ABc|
d2e f2a "C"g2e "G"d2B|1 G2B "C"c2E "D"E2D D2c:|2 G2B "C"c2E "D"E2D D3||

